X:1
T:44
T:44
T:Études enfantines op. 37
T:Henry Lemoine
C:Henry Lemoine
%%score { ( 1 2 ) | ( 3 4 ) }
L:1/8
Q:1/4=130
M:4/4
K:Ab
V:1 treble nm="Piano" snm="Pno."
V:2 treble 
V:3 treble 
V:4 treble 
V:1
"^Andantino"!p! z2 !^!A2 z2 !^!A2 | z2 !^!B2 z2 !^!B2 | z2 !^!!5!A2 z2 !^!A2 | %3
 z2 !^!!4!G2 !^!!3!F2 !^!!4!G2 | z2 !^!!5!A2 z2 !^!A2 | z2 !^!!5!B2 z2 !^!B2 | %6
 z2 !^!!5!A2 z2 !^!!4!G2 |"_poco rallentando" z2 !^!!5!A2- [CEA]2 z2!fine! |] %8
!mf! z2 !^!!5!B2 z2 !^!B2 | z2 !^!!4!B2 z2 !^!B2 | z2 !^!B2 z2 !^!B2 | z2 !^!!4!B2 z2 !^!B2 | %12
!f! z2 !^!!4!B2 z2 !^!B2 | z2 !^!!4!=A2 z2 !^!=A2 | z2 !^!!4!_A2 z2 !^!A2 | z2 !^!G2 z2 !^!G2 | %16
!mf! z2 !^!G2 z2 !^!G2 | z2 !^!!5!A2 z2 !^!A2 | z2 !^!!5!G2"_dim." z2 !^!F2 | %19
"^rallentando" z2 z2[K:bass] z4 |[K:treble]"^in tempo" z2 !4!B2 z2 B2 | z2 !5!c2 z2 c2 | %22
 z2 !5!d2 z2 c2 | z2 !^!c2 [GB]2 E2 | z2 !^!!4!B2 z2 !^!B2 | z2 !^!c2 z2 !^!c2 | %26
 z2 !^!d2 z2 !^!!5!c2 |"_smorzando" (3z (!1!E!2!G (3!4!BAG (3!1!F!3!E=D (3FE_D)!D.C.! |] %28
V:2
 (3z"_legato" !1!C!2!E (3ACE (3z CE (3ACE | (3z !1!D!2!E (3BDE (3z DE (3BDE | %2
 (3z !1!C!2!E (3ACE (3z CE (3ACE | (3z !1!D!2!E (3GDE (3FDE (3GDE | %4
 (3z !1!C!2!E (3ACE (3z CE (3ACE | (3z !1!D!2!E (3BDE (3z DE (3BDE | %6
 (3z !1!C!2!E (3ACE (3z !1!D!2!E (3GDE | (3z !1!C!2!E (3AC-E- x4 |] %8
 (3z !1!=D!2!F (3!4!BDF (3z DF (3BDF | (3z !1!E!2!G (3BEG (3z EG (3BEG | %10
 (3z !1!F!3!A (3!4!BFA (3z FA (3BFA | (3z EG (3BEG (3z EG (3BEG | %12
 (3z !1!=E!2!G (3BEG (3z EG (3BEG | (3z !1!_E!2!F (3=AEF (3z EF (3AEF | %14
 (3z !1!=DF (3ADF (3z DF (3ADF | (3z !1!B,!3!E (3GB,E (3z B,E (3GB,E | %16
 (3z !1!C!3!E (3GCE (3z CE (3GCE | (3z !1!C!3!F (3ACF (3z CF (3ACF | %18
 (3z !1!B,!3!E (3GB,E (3z !1!B,=D (3FB,D | %19
 (3z !1!B,!5!G (3!3!E!1!B, z[K:bass] !fermata!!2!E,,2 z2 | %20
[K:treble] (3z!p! !1!EG (3BEG (3z EG (3BEG | (3z !1!E!3!A (3cEA (3z EA (3cEA | %22
 (3z !1!E!3!B (3dEB (3z!<(! EA (3cEA | (3z !1!EA (3c!1!EA x2!<)! x2 | %24
 (3z!mf! !1!E!2!G (3BEG (3z EG (3BEG | (3z !1!EA (3cEA (3z EA (3cEA | %26
 (3z !1!EB (3dEB (3z EA (3cEA | x8 |] %28
V:3
!ped! !5!A,2 z2 !^!!2!c2 z2!ped-up! |!ped! !5!G,2 z2 !^!!2!d2 z2!ped-up! | %2
!ped! !5!A,2 z2 !^!!2!c2 z2!ped-up! |[K:bass]!ped! [E,B,]6 z2!ped-up! | %4
[K:treble]!ped! !5!A,2 z2 !^!!2!c2 z2!ped-up! |!ped! !5!G,2 z2 !^!!2!d2 z2!ped-up! | %6
!ped! !5!A,2 !^!!2!c2[K:bass] !5!E,2[K:treble] !^!!2!B2!ped-up! | %7
!ped! !1!A,2 z2[K:bass] A,,2 z2!ped-up! |]!ped! !5!A,2 z2[K:treble] !^!!2!c2 z2!ped-up! | %9
!ped! !5!G,2 z2[K:treble] !^!!2!c2 z2!ped-up! |!ped! !5!=D,2 z2[K:treble] !^!!2!c2 z2!ped-up! | %11
!ped! !5!E,2 z2[K:treble] !^!!2!c2 z2!ped-up! |!ped! !5!C,2 z2[K:treble] !^!!2!c2 z2!ped-up! | %13
!ped! !5!F,2 z2[K:treble] !^!!2!f2 z2!ped-up! |!ped! !5!B,,2 z2[K:treble] !^!!2!B2 z2!ped-up! | %15
!ped! !5!E,2 z2[K:treble] !^!!2!e2 z2!ped-up! |!ped! !5!C,2 z2[K:treble] !^!!2!e2 z2!ped-up! | %17
!ped! !5!A,,2 z2[K:treble] !^!!2!c2 z2!ped-up! |!ped! z4 !1!A,4!ped-up! | %19
!ped! [E,G,]2 (3z z !3!G, !5!E,2 !fermata!!1!E2!ped-up! | %20
!ped! !3!_D2 z2[K:treble] !2!e2 z2!ped-up! |!ped! !3!C2 z2[K:treble] !2!e2 z2!ped-up! | %22
!ped! !3!G,2 z2!ped-up!!ped! !2!A,2 z2!ped-up! |!ped! E,6!ped-up!!ped! z2!ped-up! | %24
 .!1!D z .!5!E, z[K:treble]!ped! !2!e2 z2!ped-up! | %25
 .!1!C z .!5!E, z[K:treble]!ped! !2!e2 z2!ped-up! | %26
[K:bass]!ped! (!1!G,4!ped-up!!ped! !2!A,4!ped-up! |!ped! !5!!3!!1![E,G,B,]4)!ped-up! z4 |] %28
V:4
 x8 | x8 | x8 |[K:bass] x8 |[K:treble] x8 | x8 | x4[K:bass] x2[K:treble] x2 | x4[K:bass] x4 |] %8
 x4[K:treble] x4 | x4[K:treble] x4 | x4[K:treble] x4 | x4[K:treble] x4 | x4[K:treble] x4 | %13
 x4[K:treble] x4 | x4[K:treble] x4 | x4[K:treble] x4 | x4[K:treble] x4 | x4[K:treble] x4 | B,,8 | %19
 x8 | x4[K:treble] x4 | x4[K:treble] x4 | x8 | x8 | x4[K:treble] x4 | x4[K:treble] x4 | %26
[K:bass] x8 | x8 |] %28

